artwork/resources/intui/icons/shell/toolbar/device-manager_dark.svg

<svg width="16" height="16" viewBox="0 0 16 16" fill="none" xmlns="http://www.w3.org/2000/svg">
<g id="device-manager/dark">
<g id="device-manager/android">
<path d="M7.72299 9.93302C7.58492 9.69388 7.66686 9.38808 7.906 9.25001C8.14515 9.11194 8.45095 9.19388 8.58902 9.43302L9.24886 10.5759C9.38693 10.8151 9.30499 11.1208 9.06585 11.2589C8.8267 11.397 8.52091 11.3151 8.38283 11.0759L7.72299 9.93302Z" fill="#3DDC84"/>
<path d="M13.219 9.93302C13.3571 9.69388 13.2752 9.38808 13.036 9.25001C12.7969 9.11194 12.4911 9.19388 12.353 9.43302L11.6941 10.5742C11.5561 10.8133 11.638 11.1191 11.8772 11.2572C12.1163 11.3953 12.4221 11.3133 12.5602 11.0742L13.219 9.93302Z" fill="#3DDC84"/>
<path fill-rule="evenodd" clip-rule="evenodd" d="M6.00765 13.9393C6.28402 11.7184 8.17745 10 10.473 10C12.7685 10 14.662 11.7184 14.9383 13.9393C15.0148 14.5532 14.5063 15 13.973 15H6.973C6.43973 15 5.93125 14.5532 6.00765 13.9393ZM7.00838 14H13.9376C13.6953 12.3041 12.2361 11 10.473 11C8.70992 11 7.25068 12.3041 7.00838 14Z" fill="#3DDC84"/>
</g>
<g id="device-manager/device">
<path d="M4 2.00002H9C9.55228 2.00002 10 2.44773 10 3.00002V9.00002H11V3.00002C11 1.89545 10.1046 1.00002 9 1.00002H4C2.89543 1.00002 2 1.89545 2 3.00002V13C2 14.1046 2.89543 15 4 15H5V14H4C3.44772 14 3 13.5523 3 13V3.00002C3 2.44773 3.44772 2.00002 4 2.00002Z" fill="#CED0D6"/>
<path d="M5 3.50002C5 3.22387 5.22386 3.00002 5.5 3.00002H7.5C7.77614 3.00002 8 3.22387 8 3.50002C8 3.77616 7.77614 4.00002 7.5 4.00002H5.5C5.22386 4.00002 5 3.77616 5 3.50002Z" fill="#CED0D6"/>
</g>
</g>
</svg>

<svg width="16" height="16" viewBox="0 0 16 16" fill="none" xmlns="http://www.w3.org/2000/svg"><path d="M7.723 9.933a.5.5 0 0 1 .866-.5l.66 1.143a.5.5 0 0 1-.866.5l-.66-1.143zM13.219 9.933a.5.5 0 0 0-.866-.5l-.659 1.141a.5.5 0 0 0 .866.5l.659-1.141z" fill="#3DDC84"/><path fill-rule="evenodd" clip-rule="evenodd" d="M6.008 13.94a4.5 4.5 0 0 1 8.93 0c.077.613-.432 1.06-.965 1.06h-7c-.533 0-1.042-.447-.965-1.06zm1 .06h6.93a3.5 3.5 0 0 0-6.93 0z" fill="#3DDC84"/><path d="M4 2h5a1 1 0 0 1 1 1v6h1V3a2 2 0 0 0-2-2H4a2 2 0 0 0-2 2v10a2 2 0 0 0 2 2h1v-1H4a1 1 0 0 1-1-1V3a1 1 0 0 1 1-1z" fill="#CED0D6"/><path d="M5 3.5a.5.5 0 0 1 .5-.5h2a.5.5 0 0 1 0 1h-2a.5.5 0 0 1-.5-.5z" fill="#CED0D6"/></svg>
